icon-themes/sifr_svg/cmd/sc_progressbar.svg

<svg viewBox="0 0 16 16" xmlns="http://www.w3.org/2000/svg"><g fill="#555753"><path d="m2 4c-1.108 0-2 .892-2 2v4c0 1.108.892 2 2 2h12c1.108 0 2-.892 2-2v-4c0-1.108-.892-2-2-2zm0 2h12v4h-12z"/><path d="m2 6v4h8c1.108 0 2-.892 2-2s-.892-2-2-2z" opacity=".35"/></g></svg>

<?xml version="1.0" encoding="UTF-8" standalone="no"?>
<svg
   xmlns:dc="http://purl.org/dc/elements/1.1/"
   xmlns:cc="http://creativecommons.org/ns#"
   xmlns:rdf="http://www.w3.org/1999/02/22-rdf-syntax-ns#"
   xmlns:svg="http://www.w3.org/2000/svg"
   xmlns="http://www.w3.org/2000/svg"
   xmlns:sodipodi="http://sodipodi.sourceforge.net/DTD/sodipodi-0.dtd"
   xmlns:inkscape="http://www.inkscape.org/namespaces/inkscape"
   viewBox="0 0 16 16"
   version="1.1"
   id="svg6"
   sodipodi:docname="sc_progressbar.svg"
   inkscape:version="0.92.3 (2405546, 2018-03-11)">
  <metadata
     id="metadata12">
    <rdf:RDF>
      <cc:Work
         rdf:about="">
        <dc:format>image/svg+xml</dc:format>
        <dc:type
           rdf:resource="http://purl.org/dc/dcmitype/StillImage" />
      </cc:Work>
    </rdf:RDF>
  </metadata>
  <defs
     id="defs10" />
  <sodipodi:namedview
     pagecolor="#ffffff"
     bordercolor="#666666"
     borderopacity="1"
     objecttolerance="10"
     gridtolerance="10"
     guidetolerance="10"
     inkscape:pageopacity="0"
     inkscape:pageshadow="2"
     inkscape:window-width="2560"
     inkscape:window-height="1278"
     id="namedview8"
     showgrid="true"
     inkscape:zoom="41.7193"
     inkscape:cx="9.6592927"
     inkscape:cy="8.6664343"
     inkscape:window-x="0"
     inkscape:window-y="30"
     inkscape:window-maximized="1"
     inkscape:current-layer="svg6">
    <inkscape:grid
       type="xygrid"
       id="grid822" />
  </sodipodi:namedview>
  <path
     style="opacity:1;fill:#555753;fill-opacity:1;stroke:none;stroke-width:2;stroke-miterlimit:4;stroke-dasharray:none;stroke-opacity:1"
     d="M 2 4 C 0.892 4 0 4.892 0 6 L 0 10 C 0 11.108 0.892 12 2 12 L 14 12 C 15.108 12 16 11.108 16 10 L 16 6 C 16 4.892 15.108 4 14 4 L 2 4 z M 2 6 L 14 6 L 14 10 L 2 10 L 2 6 z "
     id="rect824" />
  <path
     style="opacity:0.35;fill:#555753;fill-opacity:1;stroke:none;stroke-width:2;stroke-miterlimit:4;stroke-dasharray:none;stroke-opacity:1"
     d="M 2 6 L 2 10 L 10 10 C 11.108 10 12 9.108 12 8 C 12 6.892 11.108 6 10 6 L 2 6 z "
     id="rect829" />
</svg>
